src/categories-icons-sprite/categories/svg-cat-gifts-religious-products.svg

<svg width="32" height="26" viewBox="0 0 32 26" fill="none" xmlns="http://www.w3.org/2000/svg">
<path class="p-B35F49" d="M31.8326 22.6239V24.1347H19.6467C18.7702 25.2913 17.3898 25.9999 15.9163 25.9999C14.4429 25.9999 13.0624 25.2913 12.1859 24.1347H0V22.6984L1.93975 20.0687L15.9163 16.562L30.5457 20.2739L31.8326 22.6239Z" fill="#58ADE5"/>
<path class="p-99503D" d="M31.8323 22.6239V24.1347H19.6464C18.7699 25.2913 17.3895 25.9999 15.916 25.9999V16.562L30.5454 20.2739L31.8323 22.6239Z" fill="#4D98CB"/>
<path class="p-FED2A4" d="M31.8326 2.10688V22.624L31.3102 22.3629C26.5168 19.9756 20.7658 19.901 15.9163 22.1577C10.8057 19.789 4.8682 20.0688 0 22.6986V2.10688L0.5224 1.8458C5.3158 -0.541551 11.0668 -0.61611 15.9163 1.64058C20.7658 -0.616353 26.5168 -0.541551 31.3102 1.8458L31.8326 2.10688Z" fill="#5FBEFF"/>
<path class="p-FFBD86" d="M31.8323 2.10688V22.624L31.3099 22.3629C26.5165 19.9756 20.7655 19.901 15.916 22.1577V1.64058C20.7655 -0.616353 26.5165 -0.541551 31.3099 1.8458L31.8323 2.10688Z" fill="#65B3E7"/>
<path class="p-F6A96C" d="M11.978 5.98555C9.67397 5.45732 7.17636 5.45732 4.87232 5.98555L4.45508 4.16772C7.03259 3.57756 9.81775 3.57756 12.3953 4.16772L11.978 5.98555Z" fill="#B9DFFC"/>
<path class="p-EA9B58" d="M26.9604 5.98555C24.6564 5.45732 22.1588 5.45732 19.8547 5.98555L19.4375 4.16772C22.015 3.57756 24.8002 3.57756 27.3777 4.16772L26.9604 5.98555Z" fill="#A1D1FD"/>
<path class="p-F6A96C" d="M11.978 9.71578C9.67397 9.18755 7.17636 9.18755 4.87232 9.71578L4.45508 7.89794C7.03259 7.30778 9.81775 7.30778 12.3953 7.89794L11.978 9.71578Z" fill="#B9DFFC"/>
<path class="p-EA9B58" d="M26.9604 9.71578C24.6564 9.18755 22.1588 9.18755 19.8547 9.71578L19.4375 7.89794C22.015 7.30778 24.8002 7.30778 27.3777 7.89794L26.9604 9.71578Z" fill="#A1D1FD"/>
<path class="p-F6A96C" d="M11.978 13.4465C9.67397 12.9183 7.17636 12.9183 4.87232 13.4465L4.45508 11.6287C7.03259 11.0385 9.81775 11.0385 12.3953 11.6287L11.978 13.4465Z" fill="#B9DFFC"/>
<path class="p-EA9B58" d="M26.9604 13.4465C24.6564 12.9183 22.1588 12.9183 19.8547 13.4465L19.4375 11.6287C22.015 11.0385 24.8002 11.0385 27.3777 11.6287L26.9604 13.4465Z" fill="#A1D1FD"/>
<path class="p-F6A96C" d="M11.978 17.1767C9.67397 16.6485 7.17636 16.6485 4.87232 17.1767L4.45508 15.3589C7.03259 14.7687 9.81775 14.7687 12.3953 15.3589L11.978 17.1767Z" fill="#B9DFFC"/>
<path class="p-EA9B58" d="M26.9604 17.1767C24.6564 16.6485 22.1588 16.6485 19.8547 17.1767L19.4375 15.3589C22.015 14.7687 24.8002 14.7687 27.3777 15.3589L26.9604 17.1767Z" fill="#A1D1FD"/>
</svg>

<svg width="32" height="26" fill="none" xmlns="http://www.w3.org/2000/svg"><path class="p-B35F49" d="M31.833 22.624v1.51H19.647A4.7 4.7 0 0115.917 26a4.7 4.7 0 01-3.731-1.865H0v-1.437l1.94-2.63 13.976-3.506 14.63 3.712 1.287 2.35z" fill="#58ADE5"/><path class="p-99503D" d="M31.832 22.624v1.51H19.646A4.7 4.7 0 0115.916 26v-9.438l14.63 3.712 1.286 2.35z" fill="#4D98CB"/><path class="p-FED2A4" d="M31.833 2.107v20.517l-.523-.261c-4.793-2.387-10.544-2.462-15.394-.205-5.11-2.369-11.048-2.09-15.916.54V2.108l.522-.261C5.316-.542 11.067-.616 15.916 1.64c4.85-2.257 10.6-2.183 15.394.205l.523.26z" fill="#5FBEFF"/><path class="p-FFBD86" d="M31.832 2.107v20.517l-.522-.261c-4.793-2.387-10.544-2.462-15.394-.205V1.64c4.85-2.257 10.6-2.183 15.394.205l.522.26z" fill="#65B3E7"/><path class="p-F6A96C" d="M11.978 5.986a16.129 16.129 0 00-7.106 0l-.417-1.818c2.578-.59 5.363-.59 7.94 0l-.417 1.818z" fill="#B9DFFC"/><path class="p-EA9B58" d="M26.96 5.986a16.129 16.129 0 00-7.105 0l-.418-1.818c2.578-.59 5.363-.59 7.94 0l-.417 1.818z" fill="#A1D1FD"/><path class="p-F6A96C" d="M11.978 9.716a16.129 16.129 0 00-7.106 0l-.417-1.818c2.578-.59 5.363-.59 7.94 0l-.417 1.818z" fill="#B9DFFC"/><path class="p-EA9B58" d="M26.96 9.716a16.129 16.129 0 00-7.105 0l-.418-1.818c2.578-.59 5.363-.59 7.94 0l-.417 1.818z" fill="#A1D1FD"/><path class="p-F6A96C" d="M11.978 13.447a16.13 16.13 0 00-7.106 0l-.417-1.818c2.578-.59 5.363-.59 7.94 0l-.417 1.818z" fill="#B9DFFC"/><path class="p-EA9B58" d="M26.96 13.447a16.13 16.13 0 00-7.105 0l-.418-1.818c2.578-.59 5.363-.59 7.94 0l-.417 1.818z" fill="#A1D1FD"/><path class="p-F6A96C" d="M11.978 17.177a16.13 16.13 0 00-7.106 0l-.417-1.818c2.578-.59 5.363-.59 7.94 0l-.417 1.818z" fill="#B9DFFC"/><path class="p-EA9B58" d="M26.96 17.177a16.13 16.13 0 00-7.105 0l-.418-1.818c2.578-.59 5.363-.59 7.94 0l-.417 1.818z" fill="#A1D1FD"/></svg>
